packages/core/src/svgs/ctk.svg

<svg width="24" height="24" viewBox="0 0 24 24" fill="none" xmlns="http://www.w3.org/2000/svg">
<g clip-path="url(#clip0_31_8836)">
<path d="M0 0H24V24H0V0Z" fill="#F0F3FA"/>
<path fill-rule="evenodd" clip-rule="evenodd" d="M17.0528 18.4284H6.99425C6.59568 18.4284 6.26568 18.1712 6.23568 17.7812L5.57139 7.88122C5.56251 7.74604 5.5915 7.61106 5.65509 7.49145C5.71868 7.37183 5.81436 7.27232 5.93139 7.20408L11.64 3.97265C11.76 3.89979 11.8928 3.86122 12.0257 3.85693C12.1671 3.85693 12.3128 3.89551 12.4371 3.96836L18.06 7.03265C18.3042 7.17408 18.4457 7.43551 18.4285 7.71408L17.8157 17.7769C17.79 18.1626 17.4557 18.4284 17.0528 18.4284ZM16.3114 16.7141H7.73139L7.13139 8.52836L12.0342 5.57122L16.8642 8.38693L16.3071 16.7141H16.3114ZM8.87139 9.21836L9.05139 12.4284H13.5085L13.4185 13.7141H10.7442L10.6757 12.8569H9.07282L9.21425 15.4284H14.8414L15.1371 11.1426H10.5514L10.4657 10.1141L12.0214 8.99979L13.7142 10.1141V10.7141H15.1671L15.27 9.21836L12.0685 7.28551L8.87139 9.21836Z" fill="#E1AB4B"/>
</g>
<defs>
<clipPath id="clip0_31_8836">
<rect width="24" height="24" fill="white"/>
</clipPath>
</defs>
</svg>

<svg xmlns="http://www.w3.org/2000/svg" width="24" height="24" fill="none" viewBox="0 0 24 24"><g clip-path="url(#a)"><path fill="#F0F3FA" d="M0 0h24v24H0z"/><path fill="#E1AB4B" fill-rule="evenodd" d="M17.053 18.428H6.994c-.398 0-.728-.257-.758-.647l-.665-9.9a.73.73 0 0 1 .36-.677l5.709-3.231a.8.8 0 0 1 .386-.116c.141 0 .287.039.411.111l5.623 3.065a.73.73 0 0 1 .369.681l-.613 10.063c-.026.386-.36.651-.763.651m-.742-1.714h-8.58l-.6-8.186 4.903-2.957 4.83 2.816-.557 8.327zm-7.44-7.496.18 3.21h4.458l-.09 1.286h-2.675l-.068-.857H9.073l.141 2.571h5.627l.296-4.285h-4.586l-.085-1.029L12.02 9l1.693 1.114v.6h1.453l.103-1.496-3.201-1.932z" clip-rule="evenodd"/></g><defs><clipPath id="a"><path fill="#fff" d="M0 0h24v24H0z"/></clipPath></defs></svg>
